X:1
T:Lord Randal
M:3/4
L:1/4
K:C
 D| G G G| B A G| B d e/2d/2| B G A| G2 D| G G G| B A G| B de/2-d/2|\
 B G A| G3| g3| e d/2d/2 g| e d B/2A/2| G G G| B2 B/2A/2| G d3/2 e/2|\
 d G G| B G A| G2||
